packages/amis-editor/src/icons/form/input-year.svg

<?xml version="1.0" encoding="UTF-8"?>
<svg width="16px" height="16px" viewBox="0 0 16 16" version="1.1" xmlns="http://www.w3.org/2000/svg" xmlns:xlink="http://www.w3.org/1999/xlink">
    <g id="year" stroke="none" stroke-width="1" fill="none" fill-rule="evenodd">
        <rect id="矩形" stroke="currentColor" stroke-linejoin="round" x="1.5" y="3" width="13" height="11"></rect>
        <line x1="5" y1="2" x2="5" y2="4" id="直线" stroke="currentColor" stroke-linecap="round" stroke-linejoin="round"></line>
        <line x1="11" y1="2" x2="11" y2="4" id="直线" stroke="currentColor" stroke-linecap="round" stroke-linejoin="round"></line>
        <line x1="1.5" y1="6.0024863" x2="14.5" y2="6.0024863" id="直线" stroke="currentColor" stroke-linecap="round" stroke-linejoin="round"></line>
        <path d="M8.6075,12.35 L8.6075,11.285 L10.2775,11.285 L10.2775,10.775 L8.6075,10.775 L8.6075,9.85 L9.9525,9.85 L9.9525,9.36 L8.6075,9.36 L8.6075,8.715 L10.1275,8.715 L10.1275,8.21 L7.1125,8.21 C7.1675,8.07 7.2175,7.92 7.2625,7.76 L6.7225,7.66 C6.5525,8.285 6.2175,8.78 5.7225,9.15 L6.0725,9.595 C6.3875,9.355 6.6525,9.065 6.8625,8.715 L8.0825,8.715 L8.0825,9.36 L6.6025,9.36 L6.6025,10.775 L5.8325,10.775 L5.8325,11.285 L8.0825,11.285 L8.0825,12.35 L8.6075,12.35 Z M8.0825,10.775 L7.1275,10.775 L7.1275,9.85 L8.0825,9.85 L8.0825,10.775 Z" id="年" stroke="currentColor" stroke-width="0.1" fill="currentColor" fill-rule="nonzero"></path>
    </g>
</svg>

<svg width="16" height="16" xmlns="http://www.w3.org/2000/svg"><g fill="none" fill-rule="evenodd" stroke="currentColor"><path stroke-linejoin="round" d="M1.5 3h13v11h-13z"/><path stroke-linecap="round" stroke-linejoin="round" d="M5 2v2m6-2v2M1.5 6.002h13"/><path d="M8.607 12.35v-1.065h1.67v-.51h-1.67V9.85h1.346v-.49H8.607v-.645h1.52V8.21H7.111c.056-.14.106-.29.15-.45l-.54-.1a2.682 2.682 0 0 1-1 1.49l.35.445c.316-.24.58-.53.79-.88h1.22v.645h-1.48v1.415h-.77v.51h2.25v1.065h.525Zm-.524-1.575h-.955V9.85h.954v.925Z" stroke-width=".1" fill="currentColor" fill-rule="nonzero"/></g></svg>
